X: 1
T: Gallagher's Frolics
C: trad.
R: jig
S: Fiddle Hell Online 2020-11-05 handout at a mandolin workshop
N: The handout had up/down symbols for every note, not transcribed here.
Z: 2020 John Chambers <jc:trillian.mit.edu>
M: 6/8
L: 1/8
K: Edor
|:EDE GFE | BAB dBA | BdB BAB | GFG AFD |\
| EDE GFE | BAB dBA | BAG FAF | GEE E2 :|
|:e2f gfe | g2a bge | dcd fed | fag fed |\
| e2f gfe | dfe dBA | BAG FAF | GEE E2 :|
